!!!COM:	Martini, Johannes
!!!CDT:	~1440///-~1497//
!!!OTL:	La Martinella
!!!AGN:	Motet
!!!SCT:	Mar3017
!!!SCA:	Mar3017
!!!voices:	3
**kern	**kern	**kern
*staff3	*staff2	*staff1
*Ivox	*Ivox	*Ivox
*I"Contra	*I"Tenor	*I"Superius
*I'C	*I'T	*I'S
*clefF4	*clefGv2	*clefG2
*k[b-]	*k[b-]	*k[b-]
*M2/1	*M2/1	*M2/1
*met(C|)	*met(C|)	*met(C|)
=1-	=1-	=1-
0r	0r	0g
=2	=2	=2
0r	0r	1f
.	.	1g
=3	=3	=3
0r	0G	0b-
=4	=4	=4
0r	1F	1a
.	1G	[1g
=5	=5	=5
0r	0B-	2g/]
.	.	2f/
.	.	1d
=6	=6	=6
0r	1A	1f
.	[1G	2g/
.	.	[2b-\
=7	=7	=7
0r	2G/]	2b-\]
.	2F/	2a/
.	1D	1f
=8	=8	=8
0r	1F	1a
.	2G/	2b-\
.	[2B-\	[2dd\
=9	=9	=9
0r	2B-\]	2dd\]
.	2A/	2cc\
.	1F	2a/
.	.	[2cc\
=10	=10	=10
0r	1A	4cc\]
.	.	4b-\
.	.	2a/
.	2B-\	2g/
.	[2d\	2b-\
=11	=11	=11
0r	4d\]	4a/
.	4c\	4g/
.	2B-\	1g
.	1A	.
.	.	2f#i/
=12	=12	=12
0r	1G	0g
.	1r	.
=13	=13	=13
1GG	1G	0r
1D	1F	.
=14	=14	=14
2BB-/	1G	0r
1C	.	.
.	2A/	.
2D\	2B-\	.
=15	=15	=15
2E\	2c\	0r
2F\	2A/	.
2D\	2d\	.
[2G\	[2e\	.
=16	=16	=16
2G\]	4e\]	0r
.	4d\	.
2F\	1d	.
1E	.	.
.	2c#i\	.
=17	=17	=17
1D	1d	1d
2BB-/	1r	[1f
[2D\	.	.
=18	=18	=18
2D\]	1D	2f/]
4C/	.	2g/
4BB-/	.	.
1AA	1F	1a
=19	=19	=19
1GG	1G	1b-
1r	1A	1a
=20	=20	=20
1G	1B-	2g/
.	.	1dd
1F	1A	.
.	.	2cc\
=21	=21	=21
2.G\	2G/	2b-\
.	1d	4a/
4F\	.	4g/
2D\	.	2f/
2F\	2c\	2a/
=22	=22	=22
1G	2B-\	2g/
.	4A/	2b-\
.	4G/	.
2A\	2F/	2a/
2F\	2A/	[2cc\
=23	=23	=23
2G\	2B-\	4cc\]
.	.	4b-\
2B-\	2d\	1b-
1F	1c	.
.	.	2a/
=24	=24	=24
1BB-	1B-	0b-
1E-i	1r	.
=25	=25	=25
2E-i\	1B-	0r
1D	.	.
.	2B-\	.
2C/	[2A/	.
=26	=26	=26
2D\	4A/]	0r
.	4G/	.
2BB-/	1G	.
1AA	.	.
.	2F#i/	.
=27	=27	=27
2GG/	1G	1b-
1G	.	.
.	1r	2b-\
2F\	.	[2a/
=28	=28	=28
2G\	0r	4a/]
.	.	4g/
2B-\	.	1g
1A	.	.
.	.	2f#i/
=29	=29	=29
1G	1r	1g
2D\	1d	1r
[2F\	.	.
=30	=30	=30
2F\]	2c\	0r
2D\	2.B-\	.
1E-i	.	.
.	4A/	.
.	2G/	.
=31	=31	=31
2D\	2F/	0r
2BB-/	1B-	.
1C	.	.
.	2A/	.
=32	=32	=32
1BB-	1B-	1dd
2r	2c\	2cc\
2GG/	[2d\	[2b-\
=33	=33	=33
2BB-/	2d\]	4b-\]
.	.	4a/
2C/	2e-i\	2g/
2D\	2d\	2f/
2G\	2B-\	[2b-\
=34	=34	=34
1F	1c	2b-\]
.	.	2a/
2.BB-/	1B-	1b-
4C/	.	.
=35	=35	=35
1D	0r	1f
2C/	.	1g
2BB-/	.	.
=36	=36	=36
1AA	1F	1a
2GG/	2G/	2b-\
2D\	2F/	[2a/
=37	=37	=37
2E-\	2B-\	4a/]
.	.	4g/
2C/	2c\	1g
1D	1A	.
.	.	2f#i/
=38	=38	=38
1GG	1.G	1g
2r	.	[1d
2GG/	[2B-\	.
=39	=39	=39
2BB-/	2B-\]	2d/]
2C/	2A/	2c/
1E-	1G	2B-/
.	.	4A/
.	.	4G/
=40	=40	=40
0D;	[0F;	0A;
=41	=41	=41
1D	0F]	0r
2AA/	.	.
[2D\	.	.
=42	=42	=42
2D\]	0r	0a
2C/	.	.
2AA/	.	.
2D\	.	.
=43	=43	=43
2GG/	0r	1b-
1G	.	.
.	.	1a
2F\	.	.
=44	=44	=44
2D\	0A	2f/
2C/	.	1e
2E\	.	.
2F\	.	[2a/
=45	=45	=45
1G	1B-	2a/]
.	.	2g/
2D\	[1A	1a
[2F\	.	.
=46	=46	=46
2F\]	2A/]	0r
2E\	2G/	.
2.D\	1F	.
4C/	.	.
=47	=47	=47
2AA/	2E/	0r
2C/	1A	.
1BB-	.	.
.	2G/	.
=48	=48	=48
1AA	0A	1a
2r	.	[1cc
[2A\	.	.
=49	=49	=49
2A\]	0r	2cc\]
2G\	.	2b-\
2F\	.	1a
2D\	.	.
=50	=50	=50
2G\	0r	2g/
2B-\	.	1g
1A	.	.
.	.	2f/
=51	=51	=51
1G	0r	2g/
.	.	2e/
2B-\	.	2d/
[2A\	.	[2f/
=52	=52	=52
2A\]	0r	4f/]
.	.	4e/
2F\	.	1d
1E	.	.
.	.	2c#i/
=53	=53	=53
2D\	1D	1d
1F	.	.
.	2.F/	1r
2BB-/	.	.
.	4E/	.
=54	=54	=54
2AA/	2F/	0r
2GG/	2G/	.
1D	2B-\	.
.	[2A/	.
=55	=55	=55
2C/	2A/]	0r
2BB-/	1G	.
1AA	.	.
.	2F#i/	.
=56	=56	=56
1GG	1G	1.dd
[1G	1r	.
.	.	2cc\
=57	=57	=57
1G]	1.d	1b-
1F	.	1a
.	2c\	.
=58	=58	=58
2G\	1B-	1g
2B-\	.	.
1F	1A	2a/
.	.	[2cc\
=59	=59	=59
2r	1G	2cc\]
2G\	.	2b-\
2F\	2A/	1cc
2E\	[2c\	.
=60	=60	=60
1D	2c\]	1r
.	2Bni\	.
1C	1c	1g
=61	=61	=61
2r	1r	2g/
2BB-/	.	1b-
1GG	1G	.
.	.	2a/
=62	=62	=62
*M2/1	*	*
*met(3)	*	*
0r	2G/	2.g/
.	1B-	.
.	.	4f/
.	.	1d
.	2A/	.
=63	=63	=63
0r	2.G/	2r
.	.	2g/
.	4F/	.
.	1D	2a/
.	.	2b-\
=64	=64	=64
0r	2r	2g/
.	2G/	2b-\
.	2A/	2cc\
.	2B-\	2dd\
=65	=65	=65
0r	2G/	1b-
.	2B-\	.
.	2c\	2a/
.	2d\	[2a/
=66	=66	=66
0r	1B-	2a/]
.	.	2g/
.	1A	1a
=67	=67	=67
*M3/1	*M3/1	*M3/1
*met()	*met(3)	*met(3)
!!primary-mensuration: met(3)
1D	0d	0.r
1.F	.	.
.	1c	.
2E\	.	.
=68	=68	=68
1D	1.B-	0.r
0C	.	.
.	2G/	.
.	1A	.
=69	=69	=69
0BB-	0B-	0dd
1F	1r	1cc
=70	=70	=70
1G	0.r	1.b-
1B-	.	.
.	.	2g/
1c	.	1a
=71	=71	=71
1.B-	0G	0b-
2G\	.	.
1A	1F	1r
=72	=72	=72
1G	1G	0.r
1.D	1B-	.
.	1A	.
2C/	.	.
=73	=73	=73
1BB-	1.G	0.r
0AA	.	.
.	2E/	.
.	1F#i	.
=74	=74	=74
0GG	1G	0g
.	1B-	.
1D	1A	1f
=75	=75	=75
1E	1G	1g
1D	1.d	1b-
1F	.	1a
.	2c\	.
=76	=76	=76
0G	2B-\	1g
.	2A/	.
.	1B-	1.dd
[1B-	1G	.
.	.	2cc\
=77	=77	=77
1B-]	1.d	2b-\
.	.	2a/
1G	.	1b-
.	2B-\	.
1F	1c	1a
=78	=78	=78
1G	1B-	0g
0D	0A	.
.	.	1f#i
=79	=79	=79
*M2/1	*M2/1	*M2/1
*met(C|)	*met(C|)	*met(C|)
1GG	0G	1.g
[1G	.	.
.	.	2f/
=80	=80	=80
2G\]	0r	1d
2F\	.	.
2D\	.	2f/
2C/	.	[2e/
=81	=81	=81
2F\	0r	4e/]
.	.	4d/
2G\	.	1d
1E	.	.
.	.	2c#i/
=82	=82	=82
1D	1r	1d
1F	1D	2r
.	.	[2d/
=83	=83	=83
2G\	1G	2d/]
2E\	.	2e/
1D	2A/	2f/
.	2B-\	2d/
=84	=84	=84
2E\	2G/	1g
1C	1c	.
.	.	2e/
[2F\	2A/	2a/
=85	=85	=85
2F\]	2d\	2f/
2G\	2B-\	1b-
1E-	1e-	.
.	.	2g/
=86	=86	=86
2F\	2c\	2a/
2BB-/	2d\	2b-\
2r	2e\	2cc\
[2B-\	2f\	2f/
=87	=87	=87
2B-\]	2B-\	2g/
2A\	2c\	2a/
2G\	2d\	2b-\
2A\	[2c\	[2a/
=88	=88	=88
2F\	2c\]	4a/]
.	.	4g/
2G\	2B-\	1g
1D	1A	.
.	.	2f#i/
=89	=89	=89
0GGl	0Gl	0gl
==	==	==
*-	*-	*-
!!!RDF**kern: l=long note in original notation
!!!RDF**kern: i=editorial accidental
!!!ENC:	Chris Gage 11-06-2014
!!!END:	2015/02/24/
!!!EED:	Jesse Rodin
!!!EEV:	2015/03/07/
!!!ONB:	Translated from MusicXML and edited on 2015/03/07/ by Craig Sapp
!!muse2ps: C^@{COM}^i2I150v95,95,150Q16
